X:0868
T:Lady Coventry's Minuet.
M:3/4
L:1/8
Q:1/4=150
I: :: :|
Z:Jack Campin * www.campin.me.uk * 2009
K:G
 G2  G2 (3(GAB)|B2 A2 G2| B2  B2 (3(Bcd)|d2 c2 B2|d4   (gf)|d4   (ge)|  (ed)`(dc)(cB)|B2 A4:|
(de) d2    c2  |B3  c d2|(de) d2    c2  |B3  c d2|g2 f2 e2 |d2 f2 g2 |(3(edc) B2  A2 |G6   :|

